src/browser/graphics/images/footer_bid4.svg

<?xml version="1.0" encoding="UTF-8"?><svg id="_像" xmlns="http://www.w3.org/2000/svg" width="70" height="50" viewBox="0 0 70 50"><defs><style>.cls-1{fill:#fff;}.cls-2{fill:#25303a;}</style></defs><rect class="cls-2" x="43.5" y="15" width="21" height="21"/><path class="cls-1" d="M57.13,27.09h1.89v2.39h-1.89v2.52h-2.93v-2.52h-5.85v-2.39l5.85-8.23h2.93v8.23Zm-2.93,0v-4.52h-.04l-3.11,4.48v.04h3.15Z"/></svg>

<svg id="画像" xmlns="http://www.w3.org/2000/svg" width="70" height="50" viewBox="0 0 70 50"><defs><style>.cls-1{fill:#55323c;}.cls-2{fill:#fff;}</style></defs><rect class="cls-1" x="43.5" y="15" width="21" height="21"/><path class="cls-2" d="M57.13,27.09H59v2.39H57.13V32H54.2V29.48H48.35V27.09l5.85-8.23h2.93Zm-2.93,0V22.57h0l-3.11,4.48v0Z"/></svg>
